!!!OTL: Die dienende Schwester Es war ein Pfalzgraf an dem Rhein,
!!!ARE: Europa, Mitteleuropa, Deutschland (BRD), Hessen, Nassau
!!!YOR: 4, S. 112
!!    1931 gedruckt in Wiesbaden - Biebrich
!!!SCT: Q0075e
!!!YEM: Copyright 1995, estate of Helmut Schaffrath.
**kern
*ICvox
*Ivox
*M2/4
*k[b-]
*F:
{8cc
=1
8a
8cc
8a
8cc
=2
8dd
8dd
16dd
16cc}
{16b-
16a
=3
8g
8b-
8g
8b-
=4
8cc
8cc
16cc
16b-}
{16.a
32g
=5
4.f
8g
=6
4.a
8ff
=7
8ee
8dd
8dd
8dd
=8
4.cc}
==
!!!AGN: Ballade, Adelige als Dienstmagd, Tod; Kinder - Spiel, Tanz
!!!ONB: ESAC (Essen Associative Code) Database: BALLADE
!!!AMT: simple duple
!!!AIN: vox
!!!EED: Helmut Schaffrath
!!!EEV: 1.0
*-
